packages/tokens/icons/guide/size24Px.svg

<svg viewBox="0 0 24 24" fill="none" xmlns="http://www.w3.org/2000/svg" width="1em" height="1em"><path d="M19.5 13.4998V18.5C19.5 19.6046 18.6046 20.5 17.5 20.5H6.5C5.39543 20.5 4.5 19.6046 4.5 18.5L4.5 5.5C4.5 4.39543 5.39543 3.5 6.5 3.5L11.5 3.5" stroke="currentColor" stroke-linecap="round"/><path d="M7.61108 7.49976H10.5M7.61108 10.4998C9.5854 10.4998 8.52565 10.4998 10.5 10.4998M7.61108 16.4998C11.2777 16.4998 12.8334 16.4998 16.5 16.4998M7.61108 13.4998H13.5" stroke="currentColor" stroke-linecap="round"/><path d="M21.5 7C21.5 9.48528 19.4853 11.5 17 11.5C14.5147 11.5 12.5 9.48528 12.5 7C12.5 4.51472 14.5147 2.5 17 2.5C19.4853 2.5 21.5 4.51472 21.5 7Z" stroke="currentColor" stroke-linecap="round"/><path d="M17.5 6.49976L18 6.49976C18 6.36715 17.9473 6.23997 17.8536 6.1462C17.7598 6.05243 17.6326 5.99976 17.5 5.99976L17.5 6.49976ZM16.5 5.99976C16.2239 5.99976 16 6.22361 16 6.49976C16 6.7759 16.2239 6.99976 16.5 6.99976L16.5 5.99976ZM16.5 8.99976C16.2239 8.99976 16 9.22361 16 9.49976C16 9.7759 16.2239 9.99976 16.5 9.99976L16.5 8.99976ZM18.5 9.99976C18.7761 9.99976 19 9.7759 19 9.49976C19 9.22361 18.7761 8.99976 18.5 8.99976L18.5 9.99976ZM17 6.49976L17 9.49976L18 9.49976L18 6.49976L17 6.49976ZM17.5 5.99976L16.5 5.99976L16.5 6.99976L17.5 6.99976L17.5 5.99976ZM16.5 9.99976L17.5 9.99976L17.5 8.99976L16.5 8.99976L16.5 9.99976ZM17.5 9.99976L18.5 9.99976L18.5 8.99976L17.5 8.99976L17.5 9.99976Z" fill="currentColor"/><rect x="17" y="3.99976" width="1" height="1" rx="0.5" fill="currentColor"/></svg>

<svg xmlns="http://www.w3.org/2000/svg" fill="none" viewBox="0 0 24 24" width="1em" height="1em"><path stroke="currentColor" stroke-linecap="round" d="M19.5 13.5v5a2 2 0 0 1-2 2h-11a2 2 0 0 1-2-2v-13a2 2 0 0 1 2-2h5m-3.889 4H10.5m-2.889 3H10.5m-2.889 6H16.5m-8.889-3H13.5"/><path stroke="currentColor" stroke-linecap="round" d="M21.5 7a4.5 4.5 0 1 1-9 0 4.5 4.5 0 0 1 9 0Z"/><path fill="currentColor" d="M17.5 6.5h.5a.5.5 0 0 0-.5-.5v.5Zm-1-.5a.5.5 0 0 0 0 1V6Zm0 3a.5.5 0 0 0 0 1V9Zm2 1a.5.5 0 0 0 0-1v1ZM17 6.5v3h1v-3h-1Zm.5-.5h-1v1h1V6Zm-1 4h1V9h-1v1Zm1 0h1V9h-1v1Z"/><rect width="1" height="1" x="17" y="4" fill="currentColor" rx=".5"/></svg>
